alura/assets/api/cursos/php-arrays-strings-funcoes.svg

<?xml version="1.0" encoding="UTF-8"?>
<svg width="45px" height="45px" viewBox="0 0 45 45" version="1.1" xmlns="http://www.w3.org/2000/svg" xmlns:xlink="http://www.w3.org/1999/xlink">
    <!-- Generator: Sketch 53.2 (72643) - https://sketchapp.com -->
    <title>Group 17</title>
    <desc>Created with Sketch.</desc>
    <defs>
        <polygon id="path-1" points="0 0.943285982 44.969 0.943285982 44.969 46 0 46"></polygon>
    </defs>
    <g id="Page-1" stroke="none" stroke-width="1" fill="none" fill-rule="evenodd">
        <g id="Group-17" transform="translate(0.000000, -1.000000)">
            <polygon id="Fill-1" fill="#E589EF" points="42.4049 21.1224 10.2239 32.8354 9.2869 32.3534 12.8039 24.9664 5.8559 25.4944 3.3939 21.6174 43.8499 9.9044 41.8279 15.9954"></polygon>
            <polygon id="Fill-2" fill="#F799FF" points="32.6817 4.7375 28.7237 2.2755 1.7237 12.0375 3.8337 15.6435 4.4827 24.6095 44.1557 10.1695 42.2677 3.4195 35.5837 1.9245"></polygon>
            <g id="Group-16" transform="translate(0.000000, 0.056500)">
                <g id="Group-5">
                    <mask id="mask-2" fill="white">
                        <use xlink:href="#path-1"></use>
                    </mask>
                    <g id="Clip-4"></g>
                    <path d="M33.4842,21.0884 C33.5362,20.7314 33.5902,20.3634 33.6472,19.9874 L33.6532,19.9454 C33.9012,18.2714 34.1582,16.5394 34.3242,14.8084 C35.0662,12.0834 36.1902,10.3184 37.7582,9.4134 C38.2482,9.1304 38.4162,8.5024 38.1332,8.0134 C37.9972,7.7764 37.7762,7.6074 37.5112,7.5364 C37.2472,7.4654 36.9712,7.5024 36.7342,7.6394 C35.8732,8.1364 35.1102,8.8174 34.4612,9.6684 C34.3342,7.9054 33.9902,6.4844 33.4112,5.3374 C34.7452,3.3364 36.7502,2.5594 38.9302,3.2064 C41.0402,3.8334 43.2092,5.9804 42.9912,9.2134 C42.9182,10.2884 42.3722,11.3624 41.7912,12.5034 C40.9422,14.1694 40.0642,15.8924 40.5292,17.8924 C41.0232,20.0104 40.8592,21.8554 40.0672,23.0854 C39.5462,23.8944 38.7552,24.4104 37.7162,24.6184 C36.5662,24.8504 35.5522,24.5954 34.4702,24.3254 C34.0592,24.2224 33.6352,24.1174 33.1932,24.0334 C33.2212,23.1964 33.3152,22.2564 33.4842,21.0884 L33.4842,21.0884 Z M24.4562,41.1704 L24.4022,41.7864 C24.3092,42.8624 23.5752,43.9514 22.3512,43.9514 C21.1272,43.9514 20.3932,42.8624 20.3002,41.7864 L18.2802,18.3444 C18.1722,17.1484 17.2232,16.0914 16.3312,15.5734 C15.8442,15.2934 15.2142,15.4574 14.9312,15.9464 C14.6482,16.4344 14.8152,17.0624 15.3032,17.3464 C15.7252,17.5904 16.2032,18.1094 16.2402,18.5234 L16.7702,24.6694 C15.7992,24.2074 14.8602,23.9514 13.9092,23.8894 C13.8742,23.0004 13.7772,22.0384 13.5962,20.7944 L13.4332,19.6864 C12.7552,15.1244 11.8282,8.8754 13.6772,5.8914 L13.7102,5.8384 C13.8192,5.6694 13.9352,5.5124 14.0582,5.3704 C14.7942,4.5164 15.8422,4.1014 17.2622,4.1014 C17.8972,4.1014 18.6432,4.4784 19.4342,4.8784 C20.4042,5.3684 21.4062,5.8744 22.5272,5.8744 C23.6482,5.8744 24.6502,5.3684 25.6212,4.8774 C26.4112,4.4784 27.1572,4.1014 27.7912,4.1014 C29.2112,4.1014 30.2592,4.5164 30.9962,5.3704 C31.1192,5.5124 31.2352,5.6694 31.3392,5.8324 C31.3512,5.8534 31.3652,5.8744 31.3742,5.8874 C33.2262,8.8754 32.2982,15.1244 31.6212,19.6864 C31.5642,20.0654 31.5092,20.4354 31.4572,20.7944 C31.3342,21.6454 31.1892,22.7574 31.1452,23.8894 C30.0762,23.9594 29.0162,24.2754 27.9172,24.8544 L28.4622,18.5274 C28.4992,18.1114 28.9772,17.5904 29.3992,17.3464 C29.8872,17.0624 30.0542,16.4344 29.7712,15.9464 C29.4882,15.4574 28.8592,15.2934 28.3722,15.5734 C27.4792,16.0914 26.5302,17.1504 26.4222,18.3484 L25.1552,33.0544 C25.1502,33.0824 25.1342,33.1054 25.1322,33.1334 L24.4542,41.1564 C24.4542,41.1614 24.4562,41.1654 24.4562,41.1704 L24.4562,41.1704 Z M16.7612,26.9974 C15.5392,30.6274 12.9012,31.8404 10.7222,32.1854 C11.9942,31.0334 12.8612,29.7534 13.3662,28.2844 C13.6112,27.5684 13.7772,26.7804 13.8582,25.9404 C14.7922,26.0154 15.7222,26.3534 16.7612,26.9974 L16.7612,26.9974 Z M31.1952,25.9404 C31.2782,26.7944 31.4402,27.5634 31.6882,28.2844 C32.1922,29.7534 33.0592,31.0334 34.3312,32.1854 C32.1522,31.8404 29.5152,30.6284 28.2922,26.9974 C29.3322,26.3534 30.2602,26.0154 31.1952,25.9404 L31.1952,25.9404 Z M44.9692,9.9024 L44.9672,7.6044 C44.5212,4.5474 42.4302,2.1104 39.5132,1.2434 C38.0032,0.7944 36.4632,0.8504 35.0622,1.4034 C33.9382,1.8464 32.9562,2.5874 32.1402,3.6084 C31.0432,2.5764 29.5812,2.0534 27.7912,2.0534 C26.6692,2.0534 25.6672,2.5594 24.6982,3.0494 C23.9082,3.4484 23.1622,3.8254 22.5272,3.8254 C21.8932,3.8254 21.1472,3.4484 20.3552,3.0494 C19.3852,2.5594 18.3832,2.0534 17.2612,2.0534 C15.4722,2.0534 14.0102,2.5764 12.9132,3.6084 C12.5832,3.1964 12.2202,2.8244 11.8322,2.5004 C11.3982,2.1414 10.7512,2.1994 10.3892,2.6334 C10.0292,3.0674 10.0882,3.7144 10.5222,4.0754 C10.9352,4.4194 11.3122,4.8434 11.6422,5.3384 C11.0642,6.4834 10.7192,7.9054 10.5912,9.6694 C9.9432,8.8184 9.1802,8.1364 8.3192,7.6394 C8.0822,7.5034 7.8072,7.4664 7.5412,7.5374 C7.2782,7.6074 7.0572,7.7774 6.9202,8.0144 C6.7842,8.2514 6.7472,8.5264 6.8182,8.7914 C6.8882,9.0554 7.0582,9.2754 7.2942,9.4134 C8.8632,10.3184 9.9872,12.0834 10.7252,14.7844 C10.9002,16.5814 11.1692,18.3914 11.4072,19.9874 L11.5692,21.0884 C11.7382,22.2544 11.8322,23.1954 11.8612,24.0344 C11.4072,24.1194 10.9662,24.2294 10.5722,24.3284 C9.4992,24.5964 8.4902,24.8494 7.3362,24.6184 C6.2982,24.4104 5.5072,23.8944 4.9862,23.0864 C4.1942,21.8544 4.0302,20.0094 4.5242,17.8924 C4.9902,15.8914 4.1122,14.1694 3.2622,12.5014 C2.6822,11.3634 2.1352,10.2884 2.0622,9.2134 C1.9362,7.3534 2.6392,5.5994 3.9912,4.4014 C4.1962,4.2204 4.3172,3.9694 4.3332,3.6964 C4.3502,3.4234 4.2592,3.1604 4.0782,2.9564 C3.8972,2.7514 3.6472,2.6294 3.3742,2.6124 C3.0922,2.5924 2.8372,2.6884 2.6322,2.8694 C0.8022,4.4904 -0.1498,6.8534 0.0192,9.3524 C0.1202,10.8474 0.7902,12.1614 1.4392,13.4344 C2.1522,14.8344 2.8252,16.1564 2.5282,17.4264 C1.9092,20.0904 2.1692,22.4934 3.2642,24.1934 C4.0842,25.4684 5.3532,26.3094 6.9342,26.6264 C8.5352,26.9484 9.8232,26.6274 11.0702,26.3154 L11.1072,26.3054 C11.3322,26.2504 11.5512,26.1944 11.7712,26.1454 C11.4072,28.7474 9.9772,30.6044 7.0292,32.3234 C6.6552,32.5414 6.4582,32.9724 6.5382,33.3974 C6.6182,33.8224 6.9582,34.1524 7.3852,34.2194 C8.1012,34.3324 10.6382,34.6204 13.2072,33.6244 C14.8712,32.9804 16.2362,31.9244 17.2712,30.4844 L18.2592,41.9614 C18.4572,44.2634 20.2162,46.0004 22.3512,46.0004 C24.4862,46.0004 26.2452,44.2634 26.4432,41.9614 L26.5072,41.2074 L26.5072,41.2054 L27.1652,33.4314 C27.1682,33.4094 27.1812,33.3914 27.1832,33.3684 L27.4712,30.0244 C28.5342,31.6994 30.0032,32.9094 31.8462,33.6244 C33.3872,34.2214 34.9112,34.3464 35.9172,34.3464 C36.7372,34.3464 37.3662,34.2664 37.6672,34.2194 C38.0942,34.1524 38.4352,33.8224 38.5152,33.3974 C38.5952,32.9724 38.3982,32.5414 38.0252,32.3234 C35.0762,30.6034 33.6462,28.7464 33.2832,26.1454 C33.5022,26.1944 33.7232,26.2504 33.9472,26.3064 L33.9842,26.3154 C35.2302,26.6264 36.5182,26.9484 38.1192,26.6264 C39.7002,26.3094 40.9682,25.4684 41.7892,24.1934 C42.8832,22.4924 43.1452,20.0884 42.5252,17.4264 C42.2282,16.1544 42.9022,14.8324 43.6162,13.4324 C44.1772,12.3294 44.7582,11.1884 44.9692,9.9024 L44.9692,9.9024 Z" id="Fill-3" fill="#444444" mask="url(#mask-2)"></path>
                </g>
                <path d="M24.2467,19.4917 L20.2667,19.4917 C19.8517,19.4917 19.5167,19.8277 19.5167,20.2417 C19.5167,20.6557 19.8517,20.9917 20.2667,20.9917 L24.2467,20.9917 C24.6607,20.9917 24.9967,20.6557 24.9967,20.2417 C24.9967,19.8277 24.6607,19.4917 24.2467,19.4917" id="Fill-6" fill="#444444"></path>
                <path d="M23.6823,25.3789 L20.8313,25.3789 C20.4173,25.3789 20.0813,25.7149 20.0813,26.1289 C20.0813,26.5429 20.4173,26.8789 20.8313,26.8789 L23.6823,26.8789 C24.0963,26.8789 24.4323,26.5429 24.4323,26.1289 C24.4323,25.7149 24.0963,25.3789 23.6823,25.3789" id="Fill-8" fill="#444444"></path>
                <path d="M23.0133,31.2666 L21.4993,31.2666 C21.0853,31.2666 20.7493,31.6026 20.7493,32.0166 C20.7493,32.4306 21.0853,32.7666 21.4993,32.7666 L23.0133,32.7666 C23.4273,32.7666 23.7633,32.4306 23.7633,32.0166 C23.7633,31.6026 23.4273,31.2666 23.0133,31.2666" id="Fill-10" fill="#444444"></path>
                <path d="M22.7389,37.1538 L21.7749,37.1538 C21.3609,37.1538 21.0249,37.4898 21.0249,37.9038 C21.0249,38.3178 21.3609,38.6538 21.7749,38.6538 L22.7389,38.6538 C23.1529,38.6538 23.4889,38.3178 23.4889,37.9038 C23.4889,37.4898 23.1529,37.1538 22.7389,37.1538" id="Fill-12" fill="#444444"></path>
                <path d="M26.7282,10.2563 C27.0832,10.0443 27.2002,9.5833 26.9872,9.2283 C26.7772,8.8723 26.3182,8.7563 25.9582,8.9683 C21.3662,11.7103 18.5812,9.1813 18.4602,9.0693 C18.1642,8.7843 17.6892,8.7953 17.4042,9.0923 C17.1162,9.3903 17.1252,9.8653 17.4242,10.1523 C17.4482,10.1763 19.1062,11.7263 21.8932,11.7263 C23.2542,11.7263 24.8862,11.3553 26.7282,10.2563" id="Fill-14" fill="#444444"></path>
            </g>
        </g>
    </g>
</svg>

<svg xmlns="http://www.w3.org/2000/svg" xmlns:xlink="http://www.w3.org/1999/xlink" viewBox="0 0 45 45"><defs><path id="a" d="M0 .943h44.969V46H0z"/></defs><g fill="none" fill-rule="evenodd"><path fill="#E589EF" d="M42.405 20.122L10.224 31.835l-.937-.482 3.517-7.387-6.948.528-2.462-3.877L43.85 8.904l-2.022 6.091z"/><path fill="#F799FF" d="M32.682 3.737l-3.958-2.462-27 9.763 2.11 3.605.649 8.966L44.156 9.17l-1.888-6.75L35.584.926z"/><g transform="translate(0 -.944)"><mask id="b" fill="#fff"><use xlink:href="#a"/></mask><path fill="#444" d="M33.484 21.088c.052-.357.106-.725.163-1.1l.006-.043c.248-1.674.505-3.406.671-5.137.742-2.725 1.866-4.49 3.434-5.395a1.025 1.025 0 0 0-1.024-1.774 7.709 7.709 0 0 0-2.273 2.03c-.127-1.764-.47-3.185-1.05-4.332 1.334-2 3.34-2.778 5.52-2.13a5.776 5.776 0 0 1 4.06 6.006c-.073 1.075-.619 2.15-1.2 3.29-.849 1.666-1.727 3.39-1.262 5.39.494 2.117.33 3.962-.462 5.192-.52.81-1.312 1.325-2.35 1.533-1.15.232-2.165-.023-3.247-.293a22.491 22.491 0 0 0-1.277-.292c.028-.837.122-1.777.291-2.945zM24.456 41.17l-.054.616c-.093 1.076-.827 2.165-2.05 2.165-1.225 0-1.959-1.089-2.052-2.165l-2.02-23.442c-.108-1.196-1.057-2.253-1.949-2.77a1.029 1.029 0 0 0-1.4.372 1.027 1.027 0 0 0 .372 1.4c.422.244.9.763.937 1.177l.53 6.146c-.97-.462-1.91-.718-2.86-.78-.036-.889-.133-1.85-.314-3.095l-.163-1.108c-.678-4.562-1.605-10.81.244-13.795l.033-.053a4.15 4.15 0 0 1 .348-.468c.736-.854 1.784-1.269 3.204-1.269.635 0 1.381.377 2.172.777.97.49 1.972.996 3.093.996s2.123-.506 3.094-.997c.79-.399 1.536-.776 2.17-.776 1.42 0 2.468.415 3.205 1.27a3.979 3.979 0 0 1 .378.516c1.852 2.988.924 9.237.247 13.8-.057.378-.112.748-.164 1.107-.123.851-.268 1.963-.312 3.095-1.069.07-2.129.386-3.228.965l.545-6.327c.037-.416.515-.937.937-1.18.488-.285.655-.913.372-1.4a1.027 1.027 0 0 0-1.399-.374c-.893.518-1.842 1.577-1.95 2.775l-1.267 14.706c-.005.028-.02.051-.023.08l-.678 8.022.002.014zm-7.695-14.173c-1.222 3.63-3.86 4.843-6.039 5.188 1.272-1.152 2.14-2.432 2.644-3.9a10.33 10.33 0 0 0 .492-2.345c.934.075 1.864.413 2.903 1.057zm14.434-1.057c.083.854.245 1.623.493 2.344.504 1.47 1.371 2.75 2.643 3.901-2.179-.345-4.816-1.557-6.039-5.188 1.04-.644 1.968-.982 2.903-1.057zM44.97 9.902l-.002-2.298c-.446-3.057-2.537-5.494-5.454-6.36-1.51-.45-3.05-.394-4.45.16-1.125.442-2.107 1.183-2.923 2.204-1.097-1.032-2.559-1.555-4.349-1.555-1.122 0-2.124.506-3.093.996-.79.4-1.536.776-2.17.776-.635 0-1.38-.377-2.173-.776-.97-.49-1.972-.996-3.094-.996-1.789 0-3.25.523-4.348 1.555a7.776 7.776 0 0 0-1.08-1.108 1.028 1.028 0 0 0-1.444.133 1.026 1.026 0 0 0 .133 1.442c.413.344.79.768 1.12 1.263-.578 1.145-.923 2.567-1.05 4.331a7.697 7.697 0 0 0-2.273-2.03 1.021 1.021 0 0 0-1.399.375 1.02 1.02 0 0 0-.102.777c.07.264.24.484.476.622 1.57.905 2.693 2.67 3.431 5.371.175 1.797.444 3.607.682 5.203l.162 1.101c.17 1.166.263 2.107.292 2.946a21.57 21.57 0 0 0-1.289.294c-1.073.268-2.082.521-3.236.29-1.038-.208-1.829-.724-2.35-1.532-.792-1.232-.956-3.077-.462-5.194.466-2-.412-3.723-1.262-5.39-.58-1.139-1.127-2.214-1.2-3.289-.126-1.86.577-3.614 1.93-4.812.204-.18.325-.432.341-.705a1.013 1.013 0 0 0-.255-.74 1.017 1.017 0 0 0-.704-.344.996.996 0 0 0-.742.257C.802 4.49-.15 6.853.02 9.352c.101 1.495.771 2.81 1.42 4.082.713 1.4 1.386 2.722 1.09 3.992-.62 2.664-.36 5.067.735 6.767.82 1.275 2.09 2.116 3.67 2.433 1.601.322 2.89.001 4.136-.31l.037-.01c.225-.056.444-.112.664-.16-.364 2.601-1.794 4.458-4.742 6.177a1.025 1.025 0 0 0 .356 1.896c.716.113 3.253.401 5.822-.595a8.857 8.857 0 0 0 4.064-3.14l.988 11.477c.198 2.302 1.957 4.04 4.092 4.04s3.894-1.738 4.092-4.04l.064-.754v-.002l.658-7.774c.003-.022.016-.04.018-.063l.288-3.344a8.883 8.883 0 0 0 4.375 3.6c1.541.597 3.065.722 4.071.722.82 0 1.45-.08 1.75-.127.427-.067.768-.397.848-.822a1.026 1.026 0 0 0-.49-1.074c-2.949-1.72-4.379-3.577-4.742-6.178.22.05.44.105.664.161l.037.01c1.246.31 2.534.632 4.135.31 1.581-.317 2.85-1.158 3.67-2.433 1.094-1.7 1.356-4.105.736-6.767-.297-1.272.377-2.594 1.091-3.994.561-1.103 1.142-2.244 1.353-3.53z" mask="url(#b)"/></g><path fill="#444" d="M24.247 18.548h-3.98a.75.75 0 1 0 0 1.5h3.98a.75.75 0 0 0 0-1.5m-.565 5.887h-2.85a.75.75 0 0 0 0 1.5h2.85a.75.75 0 0 0 0-1.5m-.669 5.888H21.5a.75.75 0 0 0 0 1.5h1.514a.75.75 0 0 0 0-1.5m-.275 5.887h-.964a.75.75 0 0 0 0 1.5h.964a.75.75 0 0 0 0-1.5m3.989-26.897a.75.75 0 1 0-.77-1.288c-4.592 2.742-7.377.213-7.498.1a.748.748 0 0 0-1.056.024.748.748 0 0 0 .02 1.06c.024.024 1.682 1.574 4.47 1.574 1.36 0 2.992-.371 4.834-1.47"/></g></svg>
